packages/orbit-components/src/icons/svg/subway.svg

<!--character:23:472:392-->
  <svg width="24" height="24" viewBox="0 0 24 24" >
<path   d="M11.8333 2.00114C6.33333 2.08447 2 6.83447 2 12.3345V21.1678C2 21.6678 2.33333 22.0011 2.83333 22.0011H5.16667C5.16667 21.9595 5.1875 21.9178 5.20833 21.8761C5.22917 21.8345 5.25 21.7928 5.25 21.7511L7.08333 19.0845C7.33333 18.7511 7.75 18.6678 8.08333 18.9178C8.41667 19.1678 8.5 19.5845 8.25 19.9178L6.83333 22.0011H17.1667L15.75 19.8345C15.5 19.5011 15.5833 19.0845 15.9167 18.8345C16.25 18.5845 16.6667 18.6678 16.9167 19.0011L18.75 21.6678C18.8333 21.7511 18.8333 21.8345 18.8333 21.9178H21.1667C21.6667 21.9178 22 21.5845 22 21.0845V12.0011C22 6.41781 17.4167 1.91781 11.8333 2.00114ZM7.91666 11.7512C8.99999 11.5012 9.99999 11.4178 11.0833 11.3345C11.1667 11.3345 11.25 11.2512 11.25 11.1678V7.25116C11.25 7.08449 11.1667 7.00116 11.0833 7.00116H9.49999C8.49999 7.00116 7.66666 7.83449 7.66666 8.83449V11.5845C7.74999 11.7512 7.83332 11.7512 7.91666 11.7512ZM8.91667 13.5012H7.83333C7.66667 13.5012 7.5 13.6678 7.5 13.8345V14.5845C7.5 14.7512 7.66667 14.9178 7.83333 14.9178H8.91667C9.33333 14.9178 9.66667 14.5845 9.66667 14.1678C9.66667 13.8345 9.33333 13.5012 8.91667 13.5012ZM16.0833 11.7512C15.0833 11.5012 14 11.3345 12.9167 11.3345C12.8333 11.3345 12.75 11.2512 12.75 11.1678V7.16783C12.75 7.08449 12.8333 7.00116 12.9167 7.00116H14.5C15.5 7.00116 16.3333 7.83449 16.25 8.83449V11.5845C16.25 11.6678 16.1667 11.7512 16.0833 11.7512ZM16.5 17.9178C17.25 17.7511 17.75 17.0845 17.75 16.3345V8.83447C17.75 7.00114 16.25 5.58447 14.5 5.58447H9.5C7.66667 5.58447 6.25 7.08447 6.25 8.83447V16.3345C6.25 17.0845 6.83333 17.7511 7.58333 17.9178C9 18.2511 10.5 18.4178 12 18.5011C13.5 18.4178 15 18.2511 16.5 17.9178ZM13.4167 15.5012H10.5833C10.5 15.5012 10.4167 15.5845 10.4167 15.6678V17.0012C10.4167 17.0845 10.5 17.1678 10.5833 17.1678C11.0833 17.2512 11.5833 17.2512 12 17.2512C12.2614 17.2512 12.5228 17.2284 12.7722 17.2066H12.7722C13 17.1868 13.2178 17.1678 13.4167 17.1678C13.5 17.1678 13.5833 17.0845 13.5833 17.0012V15.6678C13.5833 15.5845 13.5 15.5012 13.4167 15.5012ZM15.0833 13.5012H16.1667C16.3333 13.5012 16.5 13.6678 16.5 13.9178V14.6678C16.5 14.8345 16.3333 15.0012 16.1667 15.0012H15.0833C14.6667 15.0012 14.3333 14.6678 14.3333 14.2512C14.3333 13.8345 14.6667 13.5012 15.0833 13.5012Z" />
</svg>

<!--character:23:472:392-->
<svg width="24" height="24" viewBox="0 0 24 24" xmlns="http://www.w3.org/2000/svg"><path d="M7.9167 11.7511c1.0833-.25 2.0833-.3333 3.1666-.4166.0834 0 .1667-.0834.1667-.1667V7.2511c0-.1666-.0833-.25-.1667-.25H9.5c-1 0-1.8333.8334-1.8333 1.8334v2.75c.0833.1666.1666.1666.25.1666zm1 1.75H7.8333c-.1666 0-.3333.1667-.3333.3334v.75c0 .1666.1667.3333.3333.3333h1.0834c.4166 0 .75-.3333.75-.75 0-.3333-.3334-.6667-.75-.6667zm4-2.1666c1.0833 0 2.1666.1666 3.1666.4166.0834 0 .1667-.0833.1667-.1666v-2.75c.0833-1-.75-1.8334-1.75-1.8334h-1.5833c-.0834 0-.1667.0834-.1667.1667v4c0 .0833.0833.1667.1667.1667zM11.8333 2.001C6.3333 2.0845 2 6.8345 2 12.3345v8.8333c0 .5.3333.8333.8333.8333h2.3334c0-.0833.0833-.1666.0833-.25l1.8333-2.6666c.25-.3334.6667-.4167 1-.1667.3334.25.4167.6667.1667 1l-1.4167 2.0833h10.3334L15.75 19.8345c-.25-.3334-.1667-.75.1667-1 .3333-.25.75-.1667 1 .1666l1.8333 2.6667c.0833.0833.0833.1667.0833.25h2.3334c.5 0 .8333-.3333.8333-.8333V12.001c0-5.5833-4.5833-10.0833-10.1667-10zM17.75 16.3345c0 .75-.5 1.4166-1.25 1.5833-1.5.3333-3 .5-4.5.5833-1.5-.0833-3-.25-4.4167-.5833-.75-.1667-1.3333-.8333-1.3333-1.5833v-7.5c0-1.75 1.4167-3.25 3.25-3.25h5c1.75 0 3.25 1.4166 3.25 3.25v7.5zm-4.3333-.8334h-2.8334c-.0833 0-.1666.0834-.1666.1667v1.3333c0 .0834.0833.1667.1666.1667.5.0833 1 .0833 1.4167.0833.5 0 1-.0833 1.4167-.0833.0833 0 .1666-.0833.1666-.1667v-1.3333c0-.0833-.0833-.1667-.1666-.1667zm2.75-2h-1.0834a.7469.7469 0 0 0-.75.75c0 .4167.3334.75.75.75h1.0834c.1666 0 .3333-.1666.3333-.3333v-.75c0-.25-.1667-.4167-.3333-.4167z"/></svg></svg>
